src/assets/filled/GalleryRemove.svg

<svg width="24" height="24" viewBox="0 0 24 24"  xmlns="http://www.w3.org/2000/svg">
<path d="M20.97 1H18.03C16.76 1 16 1.76 16 3.03V5.97C16 7.24 16.76 8 18.03 8H20.97C22.24 8 23 7.24 23 5.97V3.03C23 1.76 22.24 1 20.97 1ZM21.47 5.56C21.72 5.81 21.72 6.22 21.47 6.47C21.34 6.59 21.18 6.65 21.01 6.65C20.85 6.65 20.69 6.59 20.56 6.47L19.5 5.41L18.45 6.47C18.32 6.59 18.16 6.65 17.99 6.65C17.83 6.65 17.67 6.59 17.54 6.47C17.29 6.22 17.29 5.81 17.54 5.56L18.6 4.5L17.54 3.45C17.29 3.2 17.29 2.79 17.54 2.54C17.79 2.29 18.2 2.29 18.45 2.54L19.5 3.6L20.56 2.54C20.81 2.29 21.22 2.29 21.47 2.54C21.72 2.79 21.72 3.2 21.47 3.45L20.41 4.5L21.47 5.56Z" />
<path d="M9.00012 10.3801C10.3146 10.3801 11.3801 9.31456 11.3801 8.00012C11.3801 6.68568 10.3146 5.62012 9.00012 5.62012C7.68568 5.62012 6.62012 6.68568 6.62012 8.00012C6.62012 9.31456 7.68568 10.3801 9.00012 10.3801Z" />
<path d="M20.97 8H20.5V12.61L20.37 12.5C19.59 11.83 18.33 11.83 17.55 12.5L13.39 16.07C12.61 16.74 11.35 16.74 10.57 16.07L10.23 15.79C9.52 15.17 8.39 15.11 7.59 15.65L3.85 18.16C3.63 17.6 3.5 16.95 3.5 16.19V7.81C3.5 4.99 4.99 3.5 7.81 3.5H16V3.03C16 2.63 16.07 2.29 16.23 2H7.81C4.17 2 2 4.17 2 7.81V16.19C2 17.28 2.19 18.23 2.56 19.03C3.42 20.93 5.26 22 7.81 22H16.19C19.83 22 22 19.83 22 16.19V7.77C21.71 7.93 21.37 8 20.97 8Z" />
</svg>

<?xml version="1.0" encoding="UTF-8"?>
<svg width="24" height="24" viewBox="0 0 24 24" xmlns="http://www.w3.org/2000/svg">
 <path d="m20.97 1h-2.94c-1.27 0-2.03 0.76-2.03 2.03v2.94c0 1.27 0.76 2.03 2.03 2.03h2.94c1.27 0 2.03-0.76 2.03-2.03v-2.94c0-1.27-0.76-2.03-2.03-2.03zm0.5 4.56c0.25 0.25 0.25 0.66 0 0.91-0.13 0.12-0.29 0.18-0.46 0.18-0.16 0-0.32-0.06-0.45-0.18l-1.06-1.06-1.05 1.06c-0.13 0.12-0.29 0.18-0.46 0.18-0.16 0-0.32-0.06-0.45-0.18-0.25-0.25-0.25-0.66 0-0.91l1.06-1.06-1.06-1.05c-0.25-0.25-0.25-0.66 0-0.91s0.66-0.25 0.91 0l1.05 1.06 1.06-1.06c0.25-0.25 0.66-0.25 0.91 0s0.25 0.66 0 0.91l-1.06 1.05 1.06 1.06z"/>
 <path d="m9.0001 10.38c1.3145 0 2.38-1.0655 2.38-2.38s-1.0655-2.38-2.38-2.38c-1.3144 0-2.38 1.0656-2.38 2.38s1.0656 2.38 2.38 2.38z"/>
 <path d="m20.97 8h-0.47v4.61l-0.13-0.11c-0.78-0.67-2.04-0.67-2.82 0l-4.16 3.57c-0.78 0.67-2.04 0.67-2.82 0l-0.34-0.28c-0.71-0.62-1.84-0.68-2.64-0.14l-3.74 2.51c-0.22-0.56-0.35-1.21-0.35-1.97v-8.38c0-2.82 1.49-4.31 4.31-4.31h8.19v-0.47c0-0.4 0.07-0.74 0.23-1.03h-8.42c-3.64 0-5.81 2.17-5.81 5.81v8.38c0 1.09 0.19 2.04 0.56 2.84 0.86 1.9 2.7 2.97 5.25 2.97h8.38c3.64 0 5.81-2.17 5.81-5.81v-8.42c-0.29 0.16-0.63 0.23-1.03 0.23z"/>
</svg>
